src/assets/chat.svg

<svg fill="none" xmlns="http://www.w3.org/2000/svg" viewBox="0 0 40 40"><rect width="40" height="40" rx="8" fill="#B1C3FF"/><path d="M23 12v7h-9.83l-.59.59-.58.58V12h11Zm1-2H11c-.55 0-1 .45-1 1v14l4-4h10c.55 0 1-.45 1-1v-9c0-.55-.45-1-1-1Zm5 4h-2v9H14v2c0 .55.45 1 1 1h11l4 4V15c0-.55-.45-1-1-1Z" fill="#fff"/></svg>

<svg width="40" height="40" viewBox="0 0 40 40" fill="none" xmlns="http://www.w3.org/2000/svg">
<rect width="40" height="40" rx="8" fill="#B1C3FF"/>
<path d="M23 12V19H13.17L12.58 19.59L12 20.17V12H23ZM24 10H11C10.45 10 10 10.45 10 11V25L14 21H24C24.55 21 25 20.55 25 20V11C25 10.45 24.55 10 24 10ZM29 14H27V23H14V25C14 25.55 14.45 26 15 26H26L30 30V15C30 14.45 29.55 14 29 14Z" fill="white"/>
</svg>
